fast-admin/src/assets/icons/table.svg

<svg t="1697898598670" class="icon" viewBox="0 0 1024 1024" version="1.1" xmlns="http://www.w3.org/2000/svg" p-id="13117" width="200" height="200"><path d="M0 64v896h1024V64H0z m384 576v-192h256v192h-256z m256 64v192h-256v-192h256z m0-512v192h-256V192h256zM320 192v192H64V192h256z m-256 256h256v192H64v-192z m640 0h256v192h-256v-192z m0-64V192h256v192h-256zM64 704h256v192H64v-192z m640 192v-192h256v192h-256z" p-id="13118"></path></svg>

<svg class="icon" viewBox="0 0 1024 1024" xmlns="http://www.w3.org/2000/svg" width="200" height="200"><path d="M0 64v896h1024V64H0zm384 576V448h256v192H384zm256 64v192H384V704h256zm0-512v192H384V192h256zm-320 0v192H64V192h256zM64 448h256v192H64V448zm640 0h256v192H704V448zm0-64V192h256v192H704zM64 704h256v192H64V704zm640 192V704h256v192H704z"/></svg>
